src/icon.svg

<?xml version="1.0" encoding="UTF-8"?>
<svg width="120px" height="120px" viewBox="0 0 120 120" version="1.1" xmlns="http://www.w3.org/2000/svg" xmlns:xlink="http://www.w3.org/1999/xlink">
    <title>Artboard</title>
    <g id="Artboard" stroke="none" stroke-width="1" fill="none" fill-rule="evenodd">
        <rect id="Rectangle" fill="#1B2127" x="0" y="0" width="120" height="120" rx="40"></rect>
        <g id="icon" transform="translate(24.000000, 39.000000)" fill="#FFFFFF">
            <ellipse id="Oval" cx="36" cy="21" rx="36" ry="7"></ellipse>
            <path d="M21.4029805,22 L49.5970195,22 C52.0189028,22 54,20.8945594 54,19.5442896 L54,2.45571043 C54,1.10461631 52.0189028,0 49.5970195,0 L21.4029805,0 C18.9810972,0 17,1.10379197 17,2.45571043 L17,19.5442896 C17,20.8945594 18.9810972,22 21.4029805,22 Z" id="Path" fill-rule="nonzero"></path>
            <path d="M53.4072806,32 L17.5919167,32 C17.2667229,32 17,32.2714192 17,32.6033355 L17,32.9875736 C17,33.3194899 17.2667229,33.5917266 17.5919167,33.5917266 L17.5222323,33.5917266 C17.4982032,33.8418901 17.4861887,34.0953237 17.4861887,34.3512099 C17.4861887,38.5753761 20.8414511,42 24.980062,42 C29.1186728,42 32.4731343,38.5753761 32.4731343,34.3512099 C32.4731343,34.0953237 32.4603188,33.8418901 32.4370906,33.5917266 L38.5637085,33.5917266 C38.5396794,33.8418901 38.5276649,34.0953237 38.5276649,34.3512099 C38.5276649,38.5753761 41.8821263,42 46.0207372,42 C50.1593481,42 53.5146105,38.5753761 53.5146105,34.3512099 C53.5146105,34.0953237 53.501795,33.8418901 53.4777659,33.5917266 L53.4072806,33.5917266 C53.7340762,33.5917266 54,33.3194899 54,32.9875736 L54,32.6033355 C54.0007992,32.2714192 53.7348772,32 53.4072806,32 Z" id="Path" fill-rule="nonzero"></path>
        </g>
    </g>
</svg>

<svg xmlns="http://www.w3.org/2000/svg" viewBox="0 0 120 120"><g fill="none" fill-rule="evenodd"><rect width="120" height="120" fill="#1B2127" rx="40"/><g fill="#FFF" transform="translate(24 39)"><ellipse cx="36" cy="21" rx="36" ry="7"/><path fill-rule="nonzero" d="M21.4 22h28.2c2.4 0 4.4-1.1 4.4-2.5v-17C54 1 52 0 49.6 0H21.4C19 0 17 1.1 17 2.5v17c0 1.4 2 2.5 4.4 2.5Zm32 10H17.6c-.3 0-.6.3-.6.6v.4c0 .3.3.6.6.6l-.1.8c0 4.2 3.3 7.6 7.5 7.6a7.6 7.6 0 0 0 7.4-8.4h6.2v.8c0 4.2 3.3 7.6 7.4 7.6a7.6 7.6 0 0 0 7.5-8.4c.2 0 .5-.3.5-.6v-.4c0-.3-.3-.6-.6-.6Z"/></g></g></svg>
